other/albatross.svg

<?xml version="1.0" encoding="UTF-8"?>
<svg enable-background="new 0 0 48.0 48.0" version="1.1" viewBox="0 0 48 48" xml:space="preserve" xmlns="http://www.w3.org/2000/svg">
	<path d="m17.86 21.88c2.63-1.43 5.27-2.85 7.1-2.05 1.84 0.81 2.87 3.85 0.73 7.63s-7.45 8.29-10.93 11.26c-3.47 2.97-5.12 4.38-5.84 2.41-0.71-1.98-0.49-7.35 1.15-11.13 1.65-3.77 4.72-5.95 7.79-8.12z" fill="none" stroke="#fff" stroke-linecap="round" stroke-linejoin="round"/>
	<path d="m24.39 19.47c0.81-0.93 1.61-1.86 1.72-4.47 0.11-2.6-0.48-6.87 0.34-9.28 0.83-2.4 3.07-2.94 4.47-2.75s1.97 1.11 2.06 1.72c0.1 0.61-0.27 0.91 1.03 1.37 1.31 0.47 4.29 1.09 5.16 1.72 0.87 0.64-0.36 1.29-1.72 1.38-1.36 0.08-2.86-0.4-4.12-0.69-1.27-0.29-2.31-0.39-2.41 1.38-0.1 1.76 0.74 5.38 2.06 7.56 1.33 2.18 3.15 2.93 1.38 6.53s-7.14 10.06-11 13.06c-3.87 3-6.23 2.53-8.6 2.06" fill="none" stroke="#fff" stroke-linecap="round" stroke-linejoin="round"/>
	<path d="m20.26 39.06v3.1" fill="none" stroke="#fff" stroke-linecap="round" stroke-linejoin="round"/>
	<path d="m23.01 37.35v3.6" fill="none" stroke="#fff" stroke-linecap="round" stroke-linejoin="round"/>
	<path d="m17.58 44.38q2.34-3.25 6.47 0.18" fill="none" stroke="#fff" stroke-linecap="round" stroke-linejoin="round"/>
	<path d="m21.16 42.85q2.34-3.25 6.46 0.19" fill="none" stroke="#fff" stroke-linecap="round" stroke-linejoin="round"/>
</svg>

<?xml version="1.0" encoding="utf-8"?>
<svg
	version="1.1"
	xmlns="http://www.w3.org/2000/svg"
	xmlns:xlink="http://www.w3.org/1999/xlink"
	x="0%" y="0%"
	width="100%" height="100%"
	viewBox="0 0 48.0 48.0"
	enable-background="new 0 0 48.0 48.0"
	xml:space="preserve">
	<path
fill="none"
		stroke="#FFFFFF"
		stroke-opacity="1.000"
		stroke-linejoin="round"
		stroke-linecap="round"
		d="M17.86,21.88C20.49,20.45,23.13,19.03,24.96,19.83C26.80,20.64,27.83,23.68,25.69,27.46C23.55,31.24,18.24,35.75,14.76,38.72C11.29,41.69,9.64,43.10,8.92,41.13C8.21,39.15,8.43,33.78,10.07,30.00C11.72,26.23,14.79,24.05,17.86,21.88z"/>
	<path
fill="none"
		stroke="#FFFFFF"
		stroke-opacity="1.000"
		stroke-linejoin="round"
		stroke-linecap="round"
		d="M24.39,19.47C25.20,18.54,26.00,17.61,26.11,15.00C26.22,12.40,25.63,8.13,26.45,5.72C27.28,3.32,29.52,2.78,30.92,2.97C32.32,3.16,32.89,4.08,32.98,4.69C33.08,5.30,32.71,5.60,34.01,6.06C35.32,6.53,38.30,7.15,39.17,7.78C40.04,8.42,38.81,9.07,37.45,9.16C36.09,9.24,34.59,8.76,33.33,8.47C32.06,8.18,31.02,8.08,30.92,9.85C30.82,11.61,31.66,15.23,32.98,17.41C34.31,19.59,36.13,20.34,34.36,23.94C32.59,27.54,27.22,34.00,23.36,37.00C19.49,40.00,17.13,39.53,14.76,39.06"/>
	<path
fill="none"
		stroke="#FFFFFF"
		stroke-opacity="1.000"
		stroke-linejoin="round"
		stroke-linecap="round"
		d="M20.26,39.06L20.26,42.16"/>
	<path
fill="none"
		stroke="#FFFFFF"
		stroke-opacity="1.000"
		stroke-linejoin="round"
		stroke-linecap="round"
		d="M23.01,37.35L23.01,40.95"/>
	<path
fill="none"
		stroke="#FFFFFF"
		stroke-opacity="1.000"
		stroke-linejoin="round"
		stroke-linecap="round"
		d="M17.58,44.38Q19.92,41.13,24.05,44.56"/>
	<path
fill="none"
		stroke="#FFFFFF"
		stroke-opacity="1.000"
		stroke-linejoin="round"
		stroke-linecap="round"
		d="M21.16,42.85Q23.50,39.60,27.62,43.04"/>
</svg>
